src/dsmComponents/Icons/phone-call-16px.svg

<svg width="16" height="16" xmlns="http://www.w3.org/2000/svg" xmlns:xlink="http://www.w3.org/1999/xlink"><defs><path d="M15.285 12.305l-2.578-2.594a1 1 0 00-1.416-.002L9 12 4 7l2.294-2.294a1 1 0 00.001-1.414L3.715.708a1 1 0 00-1.415 0L.004 3.003 0 3c0 7.18 5.82 13 13 13l2.283-2.283a1 1 0 00.002-1.412z" id="phone-call-16px_svg__a"/></defs><use fill="#737373" xlink:href="#phone-call-16px_svg__a" fill-rule="evenodd"/></svg>

<?xml version="1.0" encoding="UTF-8"?>
<svg width="16px" height="16px" viewBox="0 0 16 16" version="1.1" xmlns="http://www.w3.org/2000/svg" xmlns:xlink="http://www.w3.org/1999/xlink">
    <!-- Generator: Sketch 59.1 (86144) - https://sketch.com -->
    <title>phone-call-16px</title>
    <desc>Created with Sketch.</desc>
    <defs>
        <path d="M15.285,12.305 L12.707,9.711 C12.317,9.318 11.682,9.318 11.291,9.709 L9,12 L4,7 L6.294,4.706 C6.684,4.316 6.685,3.683 6.295,3.292 L3.715,0.708 C3.324,0.317 2.691,0.317 2.3,0.708 L0.004,3.003 L0,3 C0,10.18 5.82,16 13,16 L15.283,13.717 C15.673,13.327 15.674,12.696 15.285,12.305 Z" id="path-1"></path>
    </defs>
    <g id="Final" stroke="none" stroke-width="1" fill="none" fill-rule="evenodd">
        <g id="All-Nucleo-Icons" transform="translate(-319.000000, -5404.000000)">
            <g id="Solo/Nucleo/16px/phone-call" transform="translate(315.000000, 5400.000000)">
                <g id="phone" transform="translate(4.000000, 4.000000)">
                    <g id="Colour/Default-Colour">
                        <mask id="mask-2" fill="white">
                            <use xlink:href="#path-1"></use>
                        </mask>
                        <g id="Mask" fill-rule="nonzero"></g>
                        <g id="colour/neutral/chia" mask="url(#mask-2)" fill="#737373">
                            <g transform="translate(-24.000000, -24.000000)" id="Colour">
                                <rect x="0" y="0" width="64" height="64"></rect>
                            </g>
                        </g>
                    </g>
                </g>
            </g>
        </g>
    </g>
</svg>
